src/status/24/bluetooth-disabled-10-symbolic.svg

<?xml version="1.0" encoding="UTF-8" standalone="no"?>
<svg
   xmlns:dc="http://purl.org/dc/elements/1.1/"
   xmlns:cc="http://creativecommons.org/ns#"
   xmlns:rdf="http://www.w3.org/1999/02/22-rdf-syntax-ns#"
   xmlns:svg="http://www.w3.org/2000/svg"
   xmlns="http://www.w3.org/2000/svg"
   id="svg6"
   version="1.1"
   width="24"
   height="24">
  <metadata
     id="metadata12">
    <rdf:RDF>
      <cc:Work
         rdf:about="">
        <dc:format>image/svg+xml</dc:format>
        <dc:type
           rdf:resource="http://purl.org/dc/dcmitype/StillImage" />
        <dc:title></dc:title>
      </cc:Work>
    </rdf:RDF>
  </metadata>
  <defs
     id="defs10" />
  <path
     id="path2"
     d="M 6.3535156 4.7363281 L 5.4121094 5.6777344 L 6.7617188 7.0273438 L 7.703125 6.0859375 L 6.3535156 4.7363281 z M 11.5 5 C 11.223 5 11 5.223 11 5.5 L 11 10.375 L 9.28125 8.875 C 8.96825 8.602 8.5239531 8.65475 8.2519531 8.96875 A 0.753 0.753 0 0 0 8.3125 10.03125 L 10.5625 12 L 8.3125 13.96875 A 0.753 0.753 0 0 0 8.25 15.03125 C 8.523 15.34425 8.96825 15.398 9.28125 15.125 L 11.001953 13.625 L 11.001953 18.5 C 11.001953 18.777 11.223953 19 11.501953 19 C 11.783953 19 11.93825 18.9805 12.15625 18.8125 L 15.6875 15.65625 A 0.78 0.78 0 0 0 15.90625 15.28125 A 0.745 0.745 0 0 0 15.9375 15 A 0.723 0.723 0 0 0 15.90625 14.84375 A 0.78 0.78 0 0 0 15.6875 14.46875 L 12.875 11.998047 L 15.6875 9.53125 A 0.78 0.78 0 0 0 15.90625 9.15625 A 0.71 0.71 0 0 0 15.90625 8.71875 A 0.78 0.78 0 0 0 15.6875 8.34375 L 12.15625 5.1875 C 11.95725 5.0275 11.729 5 11.5 5 z M 12 7.0625 L 14.09375 8.9375 L 12 10.75 L 12 7.0625 z M 12 13.25 L 14.09375 15.0625 L 12 16.9375 L 12 13.25 z "
     style="color:#bebebe;overflow:visible;fill:#363636;marker:none" />
</svg>

<svg xmlns="http://www.w3.org/2000/svg" width="24" height="24">
    <path d="m6.354 4.736-.942.942 1.35 1.35.941-.942-1.35-1.35zM11.5 5c-.277 0-.5.223-.5.5v4.875l-1.719-1.5c-.313-.273-.757-.22-1.029.094a.753.753 0 0 0 .06 1.062L10.563 12l-2.25 1.969a.753.753 0 0 0-.062 1.062c.273.313.718.367 1.031.094l1.721-1.5V18.5c0 .277.222.5.5.5.282 0 .436-.02.654-.187l3.531-3.157a.78.78 0 0 0 .22-.375.745.745 0 0 0 .03-.281.723.723 0 0 0-.03-.156.78.78 0 0 0-.22-.375l-2.812-2.471 2.813-2.467a.78.78 0 0 0 .218-.375.71.71 0 0 0 0-.437.78.78 0 0 0-.219-.375l-3.53-3.156c-.2-.16-.428-.188-.657-.188zm.5 2.063 2.094 1.875L12 10.75V7.063zm0 6.187 2.094 1.813L12 16.937V13.25z" style="color:#bebebe;overflow:visible;fill:#050505;opacity:.7;marker:none"/>
</svg>
